hook/res/quote.svg

<?xml version="1.0" encoding="UTF-8"?>
<svg xmlns="http://www.w3.org/2000/svg" xmlns:xlink="http://www.w3.org/1999/xlink" width="px" height="32px" viewBox="0 0 28 32" version="1.1">
<g id="surface1">
<path style=" stroke:none;fill-rule:nonzero;fill:rgb(0%,0%,0%);fill-opacity:1;" d="M 0 13.5 C 0 9.355469 3.355469 6 7.5 6 L 8 6 C 9.105469 6 10 6.894531 10 8 C 10 9.105469 9.105469 10 8 10 L 7.5 10 C 5.570312 10 4 11.570312 4 13.5 L 4 14 L 8 14 C 10.207031 14 12 15.792969 12 18 L 12 22 C 12 24.207031 10.207031 26 8 26 L 4 26 C 1.792969 26 0 24.207031 0 22 L 0 13.5 M 16 13.5 C 16 9.355469 19.355469 6 23.5 6 L 24 6 C 25.105469 6 26 6.894531 26 8 C 26 9.105469 25.105469 10 24 10 L 23.5 10 C 21.570312 10 20 11.570312 20 13.5 L 20 14 L 24 14 C 26.207031 14 28 15.792969 28 18 L 28 22 C 28 24.207031 26.207031 26 24 26 L 20 26 C 17.792969 26 16 24.207031 16 22 L 16 13.5 "/>
</g>
</svg>

<svg xmlns="http://www.w3.org/2000/svg" viewBox="0 0 28 32"><path d="M0 13.5A7.5 7.5 0 0 1 7.5 6H8a2 2 0 1 1 0 4h-.5A3.5 3.5 0 0 0 4 13.5v.5h4a4 4 0 0 1 4 4v4a4 4 0 0 1-4 4H4a4 4 0 0 1-4-4zm16 0A7.5 7.5 0 0 1 23.5 6h.5a2 2 0 1 1 0 4h-.5a3.5 3.5 0 0 0-3.5 3.5v.5h4a4 4 0 0 1 4 4v4a4 4 0 0 1-4 4h-4a4 4 0 0 1-4-4z"/></svg>
